X: 18165
T: Humours Of Drinagh, The
R: jig
M: 6/8
K: Dmajor
|:FDF ABc|df/g/d ecA|FDF ABc|dcA G3|
D3 ABc|df/g/d ecA|fef gec|Adc d3:|
|:f3 gfg|agf gfe|f3 gfg|agf g3|
agf g2e|f2d ecA|f3 gec|Adc d3:|

